packages/icons/src/sto-grey.svg

<svg fill="none" viewBox="0 0 32 32" xmlns="http://www.w3.org/2000/svg"><path clip-rule="evenodd" d="m14.9565 2.38057c-2.0719 1.21356-5.99323 3.44551-9.7309 3.8987-.60655.07354-1.11868.52418-1.16299 1.13356-.4373 6.01417 1.2258 17.33777 11.09329 22.28617.285.1429.6186.1659.9144.0468 2.7787-1.1195 6.9236-4.351 9.2642-10.5538l-4.6284-1.9397c-.0275-.0115-.0542-.0242-.08-.038-.6089.9879-1.5373 1.7894-2.7069 2.2313-2.8112 1.0622-5.9512-.3557-7.0133-3.1669-1.06215-2.8112.3558-5.9512 3.167-7.01333 2.8111-1.06213 5.9511.35577 7.0132 3.16693.3851 1.0192.4442 2.0816.2291 3.0725.0361.0102.072.0227.1075.0375l4.5021 1.8868c.8197-2.7843 1.2833-6.0876 1.1683-9.97014-.0185-.62575-.5171-1.13203-1.1322-1.24833-2.398-.45334-6.4371-1.86339-9.7135-3.81521-.3976-.23688-.8915-.24876-1.2909-.01485zm-.2284 8.61923c-1.8533.7002-2.788 2.7703-2.0878 4.6236s2.7703 2.788 4.6236 2.0878 2.7881-2.7703 2.0878-4.6236c-.7002-1.8533-2.7702-2.788-4.6236-2.0878z" fill="#6b6c85" fill-rule="evenodd"/></svg>

<svg viewBox="0 0 32 32" fill="none" xmlns="http://www.w3.org/2000/svg"><path fill-rule="evenodd" clip-rule="evenodd" fill="#6B6C85" d="M14.9565 2.38057C12.8846 3.59413 8.96327 5.82608 5.2256 6.27927C4.61905 6.35281 4.10692 6.80345 4.06261 7.41283C3.62531 13.427 5.28841 24.7506 15.1559 29.699C15.4409 29.8419 15.7745 29.8649 16.0703 29.7458C18.849 28.6263 22.9939 25.3948 25.3345 19.192L20.7061 17.2523C20.6786 17.2408 20.6519 17.2281 20.6261 17.2143C20.0172 18.2022 19.0888 19.0037 17.9192 19.4456C15.108 20.5078 11.968 19.0899 10.9059 16.2787C9.84375 13.4675 11.2617 10.3275 14.0729 9.26537C16.884 8.20324 20.024 9.62114 21.0861 12.4323C21.4712 13.4515 21.5303 14.5139 21.3152 15.5048C21.3513 15.515 21.3872 15.5275 21.4227 15.5423L25.9248 17.4291C26.7445 14.6448 27.2081 11.3415 27.0931 7.45896C27.0746 6.83321 26.576 6.32693 25.9609 6.21063C23.5629 5.75729 19.5238 4.34724 16.2474 2.39542C15.8498 2.15854 15.3559 2.14666 14.9565 2.38057ZM14.7281 10.9998C12.8748 11.7 11.9401 13.7701 12.6403 15.6234C13.3405 17.4767 15.4106 18.4114 17.2639 17.7112C19.1172 17.011 20.052 14.9409 19.3517 13.0876C18.6515 11.2343 16.5815 10.2996 14.7281 10.9998Z"/></svg>
